icons/unlock.svg

<?xml version="1.0" standalone="no"?><!-- Generator: Gravit.io --><svg xmlns="http://www.w3.org/2000/svg" xmlns:xlink="http://www.w3.org/1999/xlink" width="96" height="96"><path d=" M 23.91286779399 35.00807486110918 L 20 35.00807486110918 L 20 35.00807486110918 C 17.9 35.00807486110918 15.8 35.808074861109176 14.3 37.308074861109176 C 12.8 38.808074861109176 12 40.90807486110918 12 43.00807486110918 L 12 83.00807486110918 C 12 85.10807486110917 12.8 87.20807486110918 14.3 88.70807486110918 C 15.8 90.20807486110918 17.9 91.00807486110918 20 91.00807486110918 L 76 91.00807486110918 C 78.1 91.00807486110918 80.2 90.20807486110918 81.7 88.70807486110918 C 83.2 87.20807486110918 84 85.10807486110917 84 83.00807486110918 L 84 43.00807486110918 C 84 40.90807486110918 83.2 38.808074861109176 81.7 37.308074861109176 C 80.2 35.808074861109176 78.1 35.00807486110918 76 35.00807486110918 L 31.92951410187 35.00807486110918 C 31.840638333243373 29.563436048961734 33.064133632621584 24.098674283910412 35.6 19.20807486110918 C 38.3 15.108074861109179 43.1 12.80807486110918 48 13.00807486110918 C 53 12.708074861109178 57.8 15.208074861109178 60.6 19.408074861109178 C 61.1 20.30807486110918 62 20.908074861109178 63.1 21.10807486110918 C 64.1 21.30807486110918 65.2 21.10807486110918 66.1 20.60807486110918 C 67 20.00807486110918 67.6 19.10807486110918 67.8 18.00807486110918 C 68 17.00807486110918 67.8 15.90807486110918 67.3 15.00807486110918 C 63 8.608074861109179 55.7 4.708074861109179 48 5.008074861109179 C 40.2 4.708074861109179 32.8 8.608074861109179 28.6 15.208074861109178 C 25.4490421014663 21.32993592111751 23.838020348959592 28.100191147874046 23.91286779399 35.00807486110918 Z  M 20 43.00807486110918 L 20 83.00807486110918 L 76 83.00807486110918 L 76 43.00807486110918 L 20 43.00807486110918 L 20 43.00807486110918 Z  M 36 67.00807486110918 C 36 63.808074861109176 36.7 60.60807486110918 38 57.70807486110918 C 38.9 55.70807486110918 40.3 54.10807486110918 42.1 52.808074861109176 C 43.8 51.60807486110918 45.9 51.00807486110918 48 51.00807486110918 C 50.1 51.00807486110918 52.2 51.60807486110918 53.9 52.808074861109176 C 55.7 54.10807486110918 57.1 55.70807486110918 58 57.70807486110918 C 59.3 60.60807486110918 60 63.808074861109176 60 67.00807486110918 C 60 69.10807486110917 59.2 71.20807486110918 57.7 72.70807486110918 C 56.2 74.20807486110918 54.1 75.00807486110918 52 75.00807486110918 L 44 75.00807486110918 C 41.9 75.00807486110918 39.8 74.20807486110918 38.3 72.70807486110918 C 36.8 71.20807486110918 36 69.10807486110917 36 67.00807486110918 Z  M 44 67.00807486110918 C 44 64.90807486110918 44.4 62.90807486110918 45.3 61.00807486110918 C 45.6 60.40807486110918 46 59.808074861109176 46.6 59.40807486110918 C 47 59.20807486110918 47.5 59.00807486110918 48 59.00807486110918 C 48.5 59.00807486110918 49 59.20807486110918 49.4 59.40807486110918 C 50 59.808074861109176 50.4 60.40807486110918 50.7 61.00807486110918 C 51.6 62.90807486110918 52 64.90807486110918 52 67.00807486110918 L 44 67.00807486110918 Z " fill-rule="evenodd" fill="#454545" stroke="none"/><mask id="_mask_UhP4fvzLtg2Xht53L7DtSU5IzZpidzhq"><path d=" M 23.91286779399 35.00807486110918 L 20 35.00807486110918 L 20 35.00807486110918 C 17.9 35.00807486110918 15.8 35.808074861109176 14.3 37.308074861109176 C 12.8 38.808074861109176 12 40.90807486110918 12 43.00807486110918 L 12 83.00807486110918 C 12 85.10807486110917 12.8 87.20807486110918 14.3 88.70807486110918 C 15.8 90.20807486110918 17.9 91.00807486110918 20 91.00807486110918 L 76 91.00807486110918 C 78.1 91.00807486110918 80.2 90.20807486110918 81.7 88.70807486110918 C 83.2 87.20807486110918 84 85.10807486110917 84 83.00807486110918 L 84 43.00807486110918 C 84 40.90807486110918 83.2 38.808074861109176 81.7 37.308074861109176 C 80.2 35.808074861109176 78.1 35.00807486110918 76 35.00807486110918 L 31.92951410187 35.00807486110918 C 31.840638333243373 29.563436048961734 33.064133632621584 24.098674283910412 35.6 19.20807486110918 C 38.3 15.108074861109179 43.1 12.80807486110918 48 13.00807486110918 C 53 12.708074861109178 57.8 15.208074861109178 60.6 19.408074861109178 C 61.1 20.30807486110918 62 20.908074861109178 63.1 21.10807486110918 C 64.1 21.30807486110918 65.2 21.10807486110918 66.1 20.60807486110918 C 67 20.00807486110918 67.6 19.10807486110918 67.8 18.00807486110918 C 68 17.00807486110918 67.8 15.90807486110918 67.3 15.00807486110918 C 63 8.608074861109179 55.7 4.708074861109179 48 5.008074861109179 C 40.2 4.708074861109179 32.8 8.608074861109179 28.6 15.208074861109178 C 25.4490421014663 21.32993592111751 23.838020348959592 28.100191147874046 23.91286779399 35.00807486110918 Z  M 20 43.00807486110918 L 20 83.00807486110918 L 76 83.00807486110918 L 76 43.00807486110918 L 20 43.00807486110918 L 20 43.00807486110918 Z  M 36 67.00807486110918 C 36 63.808074861109176 36.7 60.60807486110918 38 57.70807486110918 C 38.9 55.70807486110918 40.3 54.10807486110918 42.1 52.808074861109176 C 43.8 51.60807486110918 45.9 51.00807486110918 48 51.00807486110918 C 50.1 51.00807486110918 52.2 51.60807486110918 53.9 52.808074861109176 C 55.7 54.10807486110918 57.1 55.70807486110918 58 57.70807486110918 C 59.3 60.60807486110918 60 63.808074861109176 60 67.00807486110918 C 60 69.10807486110917 59.2 71.20807486110918 57.7 72.70807486110918 C 56.2 74.20807486110918 54.1 75.00807486110918 52 75.00807486110918 L 44 75.00807486110918 C 41.9 75.00807486110918 39.8 74.20807486110918 38.3 72.70807486110918 C 36.8 71.20807486110918 36 69.10807486110917 36 67.00807486110918 Z  M 44 67.00807486110918 C 44 64.90807486110918 44.4 62.90807486110918 45.3 61.00807486110918 C 45.6 60.40807486110918 46 59.808074861109176 46.6 59.40807486110918 C 47 59.20807486110918 47.5 59.00807486110918 48 59.00807486110918 C 48.5 59.00807486110918 49 59.20807486110918 49.4 59.40807486110918 C 50 59.808074861109176 50.4 60.40807486110918 50.7 61.00807486110918 C 51.6 62.90807486110918 52 64.90807486110918 52 67.00807486110918 L 44 67.00807486110918 Z " fill-rule="evenodd" fill="white" stroke="none"/></mask><path d=" M 23.91286779399 35.00807486110918 L 20 35.00807486110918 L 20 35.00807486110918 C 17.9 35.00807486110918 15.8 35.808074861109176 14.3 37.308074861109176 C 12.8 38.808074861109176 12 40.90807486110918 12 43.00807486110918 L 12 83.00807486110918 C 12 85.10807486110917 12.8 87.20807486110918 14.3 88.70807486110918 C 15.8 90.20807486110918 17.9 91.00807486110918 20 91.00807486110918 L 76 91.00807486110918 C 78.1 91.00807486110918 80.2 90.20807486110918 81.7 88.70807486110918 C 83.2 87.20807486110918 84 85.10807486110917 84 83.00807486110918 L 84 43.00807486110918 C 84 40.90807486110918 83.2 38.808074861109176 81.7 37.308074861109176 C 80.2 35.808074861109176 78.1 35.00807486110918 76 35.00807486110918 L 31.92951410187 35.00807486110918 C 31.840638333243373 29.563436048961734 33.064133632621584 24.098674283910412 35.6 19.20807486110918 C 38.3 15.108074861109179 43.1 12.80807486110918 48 13.00807486110918 C 53 12.708074861109178 57.8 15.208074861109178 60.6 19.408074861109178 C 61.1 20.30807486110918 62 20.908074861109178 63.1 21.10807486110918 C 64.1 21.30807486110918 65.2 21.10807486110918 66.1 20.60807486110918 C 67 20.00807486110918 67.6 19.10807486110918 67.8 18.00807486110918 C 68 17.00807486110918 67.8 15.90807486110918 67.3 15.00807486110918 C 63 8.608074861109179 55.7 4.708074861109179 48 5.008074861109179 C 40.2 4.708074861109179 32.8 8.608074861109179 28.6 15.208074861109178 C 25.4490421014663 21.32993592111751 23.838020348959592 28.100191147874046 23.91286779399 35.00807486110918 Z  M 20 43.00807486110918 L 20 83.00807486110918 L 76 83.00807486110918 L 76 43.00807486110918 L 20 43.00807486110918 L 20 43.00807486110918 Z  M 36 67.00807486110918 C 36 63.808074861109176 36.7 60.60807486110918 38 57.70807486110918 C 38.9 55.70807486110918 40.3 54.10807486110918 42.1 52.808074861109176 C 43.8 51.60807486110918 45.9 51.00807486110918 48 51.00807486110918 C 50.1 51.00807486110918 52.2 51.60807486110918 53.9 52.808074861109176 C 55.7 54.10807486110918 57.1 55.70807486110918 58 57.70807486110918 C 59.3 60.60807486110918 60 63.808074861109176 60 67.00807486110918 C 60 69.10807486110917 59.2 71.20807486110918 57.7 72.70807486110918 C 56.2 74.20807486110918 54.1 75.00807486110918 52 75.00807486110918 L 44 75.00807486110918 C 41.9 75.00807486110918 39.8 74.20807486110918 38.3 72.70807486110918 C 36.8 71.20807486110918 36 69.10807486110917 36 67.00807486110918 Z  M 44 67.00807486110918 C 44 64.90807486110918 44.4 62.90807486110918 45.3 61.00807486110918 C 45.6 60.40807486110918 46 59.808074861109176 46.6 59.40807486110918 C 47 59.20807486110918 47.5 59.00807486110918 48 59.00807486110918 C 48.5 59.00807486110918 49 59.20807486110918 49.4 59.40807486110918 C 50 59.808074861109176 50.4 60.40807486110918 50.7 61.00807486110918 C 51.6 62.90807486110918 52 64.90807486110918 52 67.00807486110918 L 44 67.00807486110918 Z " fill-rule="evenodd" fill="none" stroke="none" stroke-width="16" mask="url(#_mask_UhP4fvzLtg2Xht53L7DtSU5IzZpidzhq)"/></svg>

<svg xmlns="http://www.w3.org/2000/svg" width="96" height="96"><path d="M23.913 35.008H20c-2.1 0-4.2.8-5.7 2.3-1.5 1.5-2.3 3.6-2.3 5.7v40c0 2.1.8 4.2 2.3 5.7 1.5 1.5 3.6 2.3 5.7 2.3h56c2.1 0 4.2-.8 5.7-2.3 1.5-1.5 2.3-3.6 2.3-5.7v-40c0-2.1-.8-4.2-2.3-5.7-1.5-1.5-3.6-2.3-5.7-2.3H31.93c-.09-5.445 1.134-10.91 3.67-15.8 2.7-4.1 7.5-6.4 12.4-6.2 5-.3 9.8 2.2 12.6 6.4.5.9 1.4 1.5 2.5 1.7 1 .2 2.1 0 3-.5.9-.6 1.5-1.5 1.7-2.6.2-1 0-2.1-.5-3-4.3-6.4-11.6-10.3-19.3-10-7.8-.3-15.2 3.6-19.4 10.2a42.188 42.188 0 0 0-4.687 19.8zm-3.913 8v40h56v-40H20zm16 24c0-3.2.7-6.4 2-9.3.9-2 2.3-3.6 4.1-4.9 1.7-1.2 3.8-1.8 5.9-1.8 2.1 0 4.2.6 5.9 1.8 1.8 1.3 3.2 2.9 4.1 4.9 1.3 2.9 2 6.1 2 9.3 0 2.1-.8 4.2-2.3 5.7-1.5 1.5-3.6 2.3-5.7 2.3h-8c-2.1 0-4.2-.8-5.7-2.3-1.5-1.5-2.3-3.6-2.3-5.7zm8 0c0-2.1.4-4.1 1.3-6 .3-.6.7-1.2 1.3-1.6.4-.2.9-.4 1.4-.4.5 0 1 .2 1.4.4.6.4 1 1 1.3 1.6.9 1.9 1.3 3.9 1.3 6h-8z" fill-rule="evenodd" fill="#454545"/></svg>
